X: 505
T: Shuoyang xiaodiao
L: 1/8
M: 2/4
K: A
c> f e c [I:setbarnb 1]| 
eB2c | 
e> d c B | 
eB3 | 
c> f e c | 
B2e B | 
A G B c/ G/ | 
F4 | 
B c/ B/F2 | 
B cF2 | 
e> d c B | 
e A B F | 
E4 | 
eB2e | 
c B A G/ F/ | 
BE2F/ E/ | 
DF2C | 
B,4 | 
eB2e | 
c B G F | 
B4 | 
E3F/ E/ | 
DF2C | 
B,4 |]

@@@ Tune index: 9379
